src/images/client-logos/walden.svg

<?xml version="1.0" encoding="UTF-8" standalone="no" ?>
<!DOCTYPE svg PUBLIC "-//W3C//DTD SVG 1.1//EN" "http://www.w3.org/Graphics/SVG/1.1/DTD/svg11.dtd">
<svg xmlns="http://www.w3.org/2000/svg" xmlns:xlink="http://www.w3.org/1999/xlink" version="1.1" width="2000" height="2000" viewBox="0 0 2000 2000" xml:space="preserve">
  <rect width="100%" height="100%" fill="#183028"/>
  <desc>Created with Fabric.js 5.2.4</desc>
  <g transform="matrix(1 0 0 1 1000 1000)" id="c8f324f9-7ee1-4aaf-b6bb-04111541c23c"  >
    <rect style="stroke: none; stroke-width: 1; stroke-dasharray: none; stroke-linecap: butt; stroke-dashoffset: 0; stroke-linejoin: miter; stroke-miterlimit: 4; fill: rgb(255,255,255); fill-rule: nonzero; opacity: 1; visibility: hidden;" vector-effect="non-scaling-stroke"  x="-1000" y="-1000" rx="0" ry="0" width="2000" height="2000" />
  </g>
  <g transform="matrix(Infinity NaN NaN Infinity 0 0)" id="181d5f6a-bd08-4503-9dfa-2e534452ce6c"  ></g>
  <g transform="matrix(20.92 0 0 20.92 1000 1000)"  >
    <g style="">
      <g transform="matrix(1 0 0 1 8.66 -8.88)" id="WL_full_logo"  >
        <path style="stroke: none; stroke-width: 1; stroke-dasharray: none; stroke-linecap: butt; stroke-dashoffset: 0; stroke-linejoin: miter; stroke-miterlimit: 4; fill: rgb(244,244,244); fill-rule: nonzero; opacity: 1;" vector-effect="non-scaling-stroke"  transform=" translate(-58.66, -81.12)" d="M 67 85.18 C 66.92803091133601 86.21875491593195 66.92803091133601 87.26124508406807 67 88.30000000000001 C 67.27 90.16000000000001 68.78 90.72000000000001 70.38 89.74000000000001 C 72.12132867006537 88.60473578462356 73.56502802872983 87.06844763098536 74.58999999999999 85.26 Q 76.02 82.95 77.58999999999999 80.72 C 78.04262455725512 80.10654241110383 78.57383040026342 79.55516419431041 79.16999999999999 79.08 C 79.91999999999999 78.46 80.71 78.64 80.86999999999999 79.59 C 81.10209694520249 81.04795186039374 81.19917510461627 82.52420938803087 81.16 83.99999999999999 C 81.16 85.32 80.85 86.62 80.71 87.94 C 80.74374311171924 88.23859801512454 80.81774826085112 88.53125474123698 80.92999999999999 88.81 C 81.69999999999999 87.9 82.41 87.14 83.03999999999999 86.32000000000001 C 84.1 84.93 85.03999999999999 83.47000000000001 86.17999999999999 82.13000000000001 C 86.60008372203751 81.66764394473411 87.15737339414527 81.35219696052216 87.77 81.23 C 88.10440856076275 81.11341669338061 88.47413134751638 81.16035372709722 88.76880023288324 81.35679965067513 C 89.06346911825011 81.55324557425304 89.24899668273991 81.87647544136539 89.27 82.23 C 89.33 83.75 89.27 85.23 89.27 86.79 C 89.27 87.52000000000001 89.17 88.25 89.16 88.97000000000001 C 89.14999999999999 89.69000000000003 89.16 90.27000000000001 89.88 90.58000000000001 C 90.5646426099074 90.86194232076133 91.35144667077502 90.70851552889215 91.88 90.19000000000001 C 92.25999999999999 89.87000000000002 92.6 89.49000000000001 92.99 89.19000000000001 C 93.1815121693278 89.10043305514066 93.38879015381079 89.04946305895632 93.6 89.04 C 93.6 89.27000000000001 93.77 89.55000000000001 93.69 89.74000000000001 C 93.19474398852007 91.1809067839079 92.15328724454766 92.3696039640971 90.78999999999999 93.05000000000001 C 90.4754602953304 93.23612626010997 90.13972849090342 93.38384825405784 89.78999999999999 93.49000000000001 C 87.97999999999999 93.88000000000001 86.97 93.19000000000001 86.78999999999999 91.31 C 86.79972971311149 90.24355517263788 86.86984194766696 89.17851694296196 86.99999999999997 88.12000000000002 C 86.99999999999999 87.18 86.99999999999999 86.24000000000001 86.99999999999999 85.25 C 86.46999999999998 85.07 86.07999999999998 85.25 85.69999999999999 85.88 C 84.61999999999999 87.6 83.47999999999999 89.3 82.27999999999999 90.94 C 81.76839002129974 91.58300818951864 81.17311799105903 92.15473838805492 80.50999999999999 92.64 C 79.94999999999999 93.08 78.41999999999999 92.22 78.38999999999999 91.36 C 78.3497267266095 89.77862819888094 78.39646398415476 88.19623819342014 78.52999999999997 86.62000000000002 C 78.61999999999999 85.45 78.86999999999999 84.29 79.04999999999998 83.12 L 78.64999999999998 82.91000000000001 C 78.07999999999998 83.65 77.49999999999997 84.38000000000001 76.94999999999997 85.15 C 75.94999999999997 86.53 74.94999999999997 87.91000000000001 74.02999999999997 89.33000000000001 C 72.85692637314588 91.01912419140753 71.05616514744446 92.16800985340502 69.02999999999997 92.52000000000001 C 67.9129430119347 92.89467805177874 66.68527434306937 92.73000138417964 65.70644538974634 92.07418598545321 C 64.72761643642329 91.41837058672678 64.10836394281127 90.34561007546604 64.02999999999997 89.17000000000002 C 64.02999999999997 88.96000000000002 63.949999999999974 88.74000000000001 63.89999999999997 88.47000000000001 C 63.13999999999997 89.30000000000001 62.489999999999974 90.10000000000001 61.73999999999997 90.80000000000001 C 60.81350281166752 91.64655568121358 59.58247416988708 92.07976224137093 58.32999999999997 92.00000000000001 C 57.80999999999997 92.00000000000001 57.20999999999997 91.30000000000001 56.83999999999997 90.78000000000002 C 56.18999999999997 89.85000000000001 55.69999999999997 88.78000000000002 55.08999999999997 87.78000000000002 C 54.92223298450302 88.12752083684282 54.7283432948622 88.46181340518906 54.50999999999997 88.78000000000002 C 53.74 90 53 91.35 51.88 92.13 C 49.88 93.50999999999999 49.1 93.13 48.06 91.13 C 47.262609890327106 91.84866091762322 46.420959940042636 92.51663706864265 45.54 93.13 C 44.641268941803226 93.69216272973102 43.66858100503589 94.12633831396282 42.65 94.42 C 41.29 94.79 40.199999999999996 93.7 39.5 92.47 C 38.8161622782932 91.0636961725707 38.5291808420925 89.49739990029461 38.67 87.94 C 38.67 86.82 38.67 85.7 38.67 84.53999999999999 C 38.53488849956944 84.70017881544578 38.41753651796535 84.87453033097185 38.32 85.05999999999999 C 37.83 86.21 37.44 87.40999999999998 36.85 88.50999999999999 C 36.10506591441489 90.10759396850692 34.82928858694912 91.39750733284212 33.24 92.16 C 32.34012861023372 92.48494855143633 31.3340059994064 92.17002399438876 30.78 91.39 C 30.23 90.39 29.78 89.28 29.27 88.15 C 28.83 88.78 28.27 89.5 27.78 90.27000000000001 C 27.185860584076487 91.48467705738388 25.759837360340036 92.04117392518347 24.5 91.55000000000001 C 24.33 91.49000000000001 24.2 91.21000000000001 24.12 91.01 C 23.403326564268838 89.24864622393848 23.428569654322065 87.2724728883428 24.189999999999998 85.53 C 24.703091583613304 84.04602085019131 25.373578689985923 82.6212357491495 26.19 81.28 C 27.19 79.84 28.19 78.36 30.25 78.12 C 31.007519880921144 77.92713437104 31.781574140790198 78.36945109096517 32 79.12 C 32.3 80.02000000000001 32.58 80.96000000000001 31.74 81.83 C 31.524462427814754 82.17946807695948 31.4394510014819 82.59389878033215 31.5 83 C 31.51948891765661 84.55246539644389 31.63638532066252 86.10217771057943 31.849999999999994 87.63999999999999 C 32.06894259830369 88.24262629382015 32.563534253584145 88.70374934084855 33.18 88.88 C 33.55 88.94 34.18 88.25 34.48 87.77 C 35.25 86.63 35.9 85.41 36.62 84.24 C 36.769456161520424 84.04095164467522 36.94814122410487 83.86563799836594 37.15 83.72 C 37.18088766822639 83.20349849680471 37.26125583027505 82.69115146374453 37.39 82.19 C 38.80817294185556 78.75860774747278 39.906175821095935 75.20348866895667 40.67 71.57 C 40.79776699871287 70.88739862264558 41.101047131126684 70.24982107154837 41.550000000000004 69.72 C 41.906738301482534 69.36532845945301 42.416673362759155 69.21159803656815 42.910000000000004 69.31 C 43.28775666467544 69.63920132720969 43.481734016498805 70.1316053741459 43.43000000000001 70.63 C 43.07000000000001 73.02 42.60000000000001 75.39 42.17000000000001 77.75999999999999 C 42.17440511461768 77.79318779557236 42.17440511461768 77.82681220442761 42.17000000000001 77.85999999999999 C 41.17000000000001 80.02999999999999 41.66000000000001 82.40999999999998 41.35000000000001 84.66999999999999 C 41.21854438927949 86.37660620205673 41.32625289043458 88.09321043921608 41.67 89.76999999999998 C 41.92000000000001 91.46999999999998 43.03000000000001 92.01999999999998 44.46000000000001 91.16999999999999 C 46.23000000000001 90.11999999999999 47.830000000000005 88.97999999999999 48.11000000000001 86.53999999999999 C 48.35827431545037 84.56315748199657 49.16281297048425 82.69746008368526 50.43000000000001 81.16 C 51.43000000000001 79.89999999999999 52.61000000000001 78.61 54.20000000000001 78.71 C 56.540000000000006 78.86 56.02000000000001 77.16 56.30000000000001 76.03999999999999 C 56.84000000000001 73.83 57.21000000000001 71.57 57.69000000000001 69.33999999999999 C 57.82977673464939 68.4948245025716 58.51784633822602 67.8477114230174 59.37000000000001 67.75999999999999 C 60.12000000000001 67.66 60.54000000000001 67.99 60.37000000000001 68.75999999999999 C 59.820000000000014 70.97999999999999 59.180000000000014 73.17999999999999 58.73000000000001 75.41 C 58.33000000000001 77.41 58.12000000000001 79.41 57.83000000000001 81.41 C 57.83000000000001 81.47999999999999 57.83000000000001 81.55 57.83000000000001 81.61 C 56.95000000000001 83.4 58.06000000000001 85.15 57.94000000000001 86.92 C 57.9642438094071 87.21845844221225 58.0678178369909 87.50501325186076 58.24000000000001 87.75 C 59.00000000000001 89.11 59.60000000000001 89.47 61.07000000000001 88.53 C 62.800000000000004 87.44 63.70000000000001 85.6 64.64 83.85 C 65.3 82.63 65.8 81.32 66.52 80.14 C 67.2674644190769 79.00087492028284 68.4562833047533 78.22524308633542 69.8 78 C 72.07 77.54 72.8 79.62 72.5 81.08 C 72.17802722990237 83.32091531032371 70.26389748453717 84.98833499961962 68 85 C 67.75 85.06 67.46 85.12 67 85.18 Z M 55.52 81 C 54.300000000000004 81.13 53.27 81.24 52.580000000000005 82.2 C 51.10603587370033 84.07300904173903 50.344202838595656 86.4081158795715 50.43000000000001 88.79 C 50.43000000000001 89.06 50.68000000000001 89.51 50.84 89.52000000000001 C 51.207814680339304 89.56581271829316 51.57633680992046 89.44051519423557 51.84 89.18 C 52.78 87.57000000000001 53.7 85.94000000000001 54.49 84.26 C 54.903356316454634 83.19671059937049 55.2474098108191 82.10776458808101 55.52000000000001 81 Z M 26 88.39 C 27.31 88 29.78 82.39 29.42 80.73 C 28.16 81.19 25.85 86.3 26 88.39 Z M 68 82.95 C 69 82.79 70 82.74000000000001 70.35 81.54 C 70.42999999999999 81.25 70.44999999999999 80.74000000000001 70.35 80.65 C 70.04063445450656 80.49254994592988 69.68250738449316 80.46031850962866 69.35 80.56 C 68.47661097013258 81.02951772792558 67.95124677192305 81.95960693808912 68 82.95 Z" stroke-linecap="round" />
      </g>
      <g transform="matrix(1 0 0 1 -36.2 -6.32)" id="WL_full_logo"  >
        <path style="stroke: none; stroke-width: 1; stroke-dasharray: none; stroke-linecap: butt; stroke-dashoffset: 0; stroke-linejoin: miter; stroke-miterlimit: 4; fill: rgb(244,244,244); fill-rule: nonzero; opacity: 1;" vector-effect="non-scaling-stroke"  transform=" translate(-13.8, -83.68)" d="M 17.58 89 C 17.84 87.38 18.139999999999997 85.77 18.36 84.15 C 18.79 81 19.169999999999998 77.83000000000001 19.63 74.69 C 19.732256065744227 74.23108945937162 20.01289465691528 73.83171915655127 20.41 73.58 C 20.75 73.38 21.48 73.33 21.67 73.58 C 21.95473752675988 73.99495693506162 22.072572903945197 74.50200613385903 22 75 C 21.48 78.77 21 82.55 20.3 86.3 C 19.921581127203755 88.37367686814004 19.36621749263428 90.41112538291597 18.639999999999997 92.39 C 18.09 93.9 16.85 93.97 16.04 92.55 C 15.430408304706257 91.39142747565425 14.976484326070395 90.15742673373308 14.689999999999996 88.88 C 14.27 87.24 14.03 85.55 13.69 83.88 C 13.595054995794245 83.57848637412226 13.478073079829356 83.28436041398197 13.34 83 C 13.08 83.65 12.89 84.08 12.72 84.53 C 11.72 87.41 10.65 90.31 9.56 93.18 C 9.324742911463723 93.67494625255705 8.98331499439982 94.11197398639885 8.56 94.46000000000001 C 7.5600000000000005 95.35000000000001 6.5600000000000005 95.03 6.33 93.60000000000001 C 6.148753131552901 92.37539901281013 6.071810113622108 91.13762002870604 6.100000000000003 89.90000000000002 C 6 86.06 6 82.22 5.94 78.39 C 5.94 76.93 5.760000000000001 75.47 5.590000000000001 74.02 C 5.490000000000001 73.19 5.750000000000001 72.58999999999999 6.590000000000001 72.42 C 6.924773835661378 72.35624509616888 7.270816663656912 72.43907805741075 7.540437066827089 72.64750801447138 C 7.810057469997265 72.85593797153201 7.9773788662134 73.16996104177294 8 73.51 C 8.19 74.99000000000001 8.3 76.51 8.35 77.97 C 8.43 80.28 8.44 82.6 8.469999999999999 84.91 C 8.441252161275761 86.31378651651049 8.51813571182082 87.71774700472469 8.699999999999996 89.10999999999999 C 9.12 88.11 9.62 87.05 9.95 85.98 C 10.85 83.08 11.639999999999999 80.14 12.549999999999999 77.25 C 12.73169120475022 76.83712109449044 13.10627954278018 76.54119630744677 13.549999999999999 76.46 C 14.034467370128947 76.55349491283923 14.452235858187217 76.85765968923253 14.69 77.28999999999999 C 14.961240434345262 77.96677638333561 15.142780699611748 78.67612816058059 15.23 79.39999999999999 C 15.780000000000001 82.39999999999999 16.310000000000002 85.39999999999999 16.87 88.39999999999999 C 16.955285073968074 88.62801887013306 17.076851549438373 88.84076020220608 17.23 89.02999999999999 Z" stroke-linecap="round" />
      </g>
      <g transform="matrix(1 0 0 1 3.97 12.13)" id="WL_full_logo"  >
        <path style="stroke: none; stroke-width: 1; stroke-dasharray: none; stroke-linecap: butt; stroke-dashoffset: 0; stroke-linejoin: miter; stroke-miterlimit: 4; fill: rgb(255,107,0); fill-rule: nonzero; opacity: 1;" vector-effect="non-scaling-stroke"  transform=" translate(-53.97, -102.13)" d="M 53.55 105.32 L 56.55 105.32 L 56.55 107 L 51.4 107 L 51.4 97.26 L 53.55 97.26 Z" stroke-linecap="round" />
      </g>
      <g transform="matrix(1 0 0 1 12.21 12.12)" id="WL_full_logo"  >
        <path style="stroke: none; stroke-width: 1; stroke-dasharray: none; stroke-linecap: butt; stroke-dashoffset: 0; stroke-linejoin: miter; stroke-miterlimit: 4; fill: rgb(255,107,0); fill-rule: nonzero; opacity: 1;" vector-effect="non-scaling-stroke"  transform=" translate(-62.21, -102.12)" d="M 62.21 107.23 C 58.84 107.23 56.75 104.96000000000001 56.75 102.10000000000001 C 56.75 99.24000000000001 58.91 97 62.21 97 C 65.51 97 67.67 99.21 67.67 102.1 C 67.67 104.99 65.57 107.23 62.21 107.23 Z M 62.21 98.87 C 60.8829706886528 98.86273771004306 59.684821614583456 99.6630139630689 59.1832715967621 100.89163396683469 C 58.681721578940746 102.12025397060049 58.97752859913099 103.53039633634107 59.93053045566698 104.45389349143632 C 60.88353231220297 105.37739064653157 62.30227742444543 105.62871830386044 63.51452198152504 105.08878991244089 C 64.72676653860465 104.54886152102132 65.48897886743755 103.32614501641962 65.44 102 C 65.43765097201066 101.15312566410307 65.09331999388155 100.34310682028936 64.48514666509875 99.75376238713451 C 63.876973336315956 99.16441795397967 63.05652955930211 98.84572318058055 62.21 98.87 Z" stroke-linecap="round" />
      </g>
      <g transform="matrix(1 0 0 1 22.47 12.18)" id="WL_full_logo"  >
        <path style="stroke: none; stroke-width: 1; stroke-dasharray: none; stroke-linecap: butt; stroke-dashoffset: 0; stroke-linejoin: miter; stroke-miterlimit: 4; fill: rgb(255,107,0); fill-rule: nonzero; opacity: 1;" vector-effect="non-scaling-stroke"  transform=" translate(-72.47, -102.18)" d="M 76.38 99.84 C 75.73933120178107 99.19062108498507 74.86216352378116 98.82964673189868 73.94999999999999 98.84 C 72.12193747806006 98.84 70.63999999999999 100.32193747806008 70.63999999999999 102.15 C 70.63999999999999 103.97806252193993 72.12193747806006 105.46000000000001 73.94999999999999 105.46000000000001 C 74.8613532156281 105.45128755303945 75.73465657643479 105.09337633959407 76.38999999999999 104.46000000000001 L 76.38999999999999 106.71000000000001 C 75.60419652958012 107.06962319419854 74.75387627017042 107.26689749438158 73.88999999999999 107.29 C 72.0086339717406 107.37320637184959 70.23345320001664 106.41689958296544 69.26792627399728 104.8000448623005 C 68.30239934797793 103.18319014163555 68.30239934797793 101.16680985836446 69.26792627399728 99.54995513769951 C 70.23345320001664 97.93310041703457 72.0086339717406 96.97679362815042 73.88999999999999 97.06 C 74.74234219035682 97.06335065370467 75.58304248494221 97.25814706342567 76.34999999999998 97.63 Z" stroke-linecap="round" />
      </g>
      <g transform="matrix(1 0 0 1 31.94 11.96)" id="WL_full_logo"  >
        <path style="stroke: none; stroke-width: 1; stroke-dasharray: none; stroke-linecap: butt; stroke-dashoffset: 0; stroke-linejoin: miter; stroke-miterlimit: 4; fill: rgb(255,107,0); fill-rule: nonzero; opacity: 1;" vector-effect="non-scaling-stroke"  transform=" translate(-81.94, -101.96)" d="M 80.05 104.92 L 79.14 106.92 L 76.87 106.92 L 81.17 96.92 L 82.84 96.92 L 87 107 L 84.7 107 L 83.85000000000001 105 Z M 81.91 99.85 L 81.91 99.85 L 80.7 103.38 L 83.32000000000001 103.38 Z" stroke-linecap="round" />
      </g>
      <g transform="matrix(1 0 0 1 40.24 12.13)" id="WL_full_logo"  >
        <path style="stroke: none; stroke-width: 1; stroke-dasharray: none; stroke-linecap: butt; stroke-dashoffset: 0; stroke-linejoin: miter; stroke-miterlimit: 4; fill: rgb(255,107,0); fill-rule: nonzero; opacity: 1;" vector-effect="non-scaling-stroke"  transform=" translate(-90.24, -102.13)" d="M 89.84 105.32 L 92.84 105.32 L 92.84 107 L 87.64 107 L 87.64 97.26 L 89.79 97.26 Z" stroke-linecap="round" />
      </g>
    </g>
  </g>
</svg>

<svg xmlns="http://www.w3.org/2000/svg" viewBox="0 50 100 80">
  <defs>
    <style>
      .cls-1,.cls-2,.cls-3,.cls-4,.cls-5{fill-rule:evenodd;}.cls-2{fill:#b9ce95;}.cls-3{fill:#a8b1ad;}.cls-4{fill:#788681;}.cls-5{fill:#61726c;}.cls-6{fill:none;stroke:#183029;stroke-miterlimit:10;stroke-width:2.9px;}.cls-7{fill:#183029;}.cls-8{fill:#f4f4f4;}.cls-9{fill:#ff6b00;}
    </style>
  </defs>
  <desc>Walden Local Logo</desc>
  <g id="Layer_2" data-name="Layer 2">
    <g id="WL_full_logo" data-name="WL full logo">
      <path class="cls-8" d="M67,85.18a22.57,22.57,0,0,0,0,3.12c.27,1.86,1.78,2.42,3.38,1.44a13,13,0,0,0,4.21-4.48q1.43-2.31,3-4.54a8.71,8.71,0,0,1,1.58-1.64c.75-.62,1.54-.44,1.7.51A24,24,0,0,1,81.16,84c0,1.32-.31,2.62-.45,3.94a3.33,3.33,0,0,0,.22.87c.77-.91,1.48-1.67,2.11-2.49,1.06-1.39,2-2.85,3.14-4.19a2.92,2.92,0,0,1,1.59-.9,1.13,1.13,0,0,1,1.5,1c.06,1.52,0,3,0,4.56,0,.73-.1,1.46-.11,2.18s0,1.3.72,1.61a1.85,1.85,0,0,0,2-.39c.38-.32.72-.7,1.11-1a1.61,1.61,0,0,1,.61-.15c0,.23.17.51.09.7a5.81,5.81,0,0,1-2.9,3.31,4.57,4.57,0,0,1-1,.44c-1.81.39-2.82-.3-3-2.18a28.25,28.25,0,0,1,.21-3.19c0-.94,0-1.88,0-2.87-.53-.18-.92,0-1.3.63-1.08,1.72-2.22,3.42-3.42,5.06a9.22,9.22,0,0,1-1.77,1.7c-.56.44-2.09-.42-2.12-1.28a43.14,43.14,0,0,1,.14-4.74c.09-1.17.34-2.33.52-3.5l-.4-.21c-.57.74-1.15,1.47-1.7,2.24-1,1.38-2,2.76-2.92,4.18a7.69,7.69,0,0,1-5,3.19,3.8,3.8,0,0,1-5-3.35c0-.21-.08-.43-.13-.7-.76.83-1.41,1.63-2.16,2.33a4.62,4.62,0,0,1-3.41,1.2c-.52,0-1.12-.7-1.49-1.22-.65-.93-1.14-2-1.75-3a7.63,7.63,0,0,1-.58,1C53.74,90,53,91.35,51.88,92.13c-2,1.38-2.78,1-3.82-1a25.69,25.69,0,0,1-2.52,2,11.41,11.41,0,0,1-2.89,1.29c-1.36.37-2.45-.72-3.15-1.95a8.59,8.59,0,0,1-.83-4.53c0-1.12,0-2.24,0-3.4a2.9,2.9,0,0,0-.35.52c-.49,1.15-.88,2.35-1.47,3.45a7.62,7.62,0,0,1-3.61,3.65,2.13,2.13,0,0,1-2.46-.77c-.55-1-1-2.11-1.51-3.24-.44.63-1,1.35-1.49,2.12a2.6,2.6,0,0,1-3.28,1.28c-.17-.06-.3-.34-.38-.54a7.05,7.05,0,0,1,.07-5.48,22,22,0,0,1,2-4.25c1-1.44,2-2.92,4.06-3.16A1.45,1.45,0,0,1,32,79.12c.3.9.58,1.84-.26,2.71A1.74,1.74,0,0,0,31.5,83a37.11,37.11,0,0,0,.35,4.64,2,2,0,0,0,1.33,1.24c.37.06,1-.63,1.3-1.11.77-1.14,1.42-2.36,2.14-3.53a2.47,2.47,0,0,1,.53-.52,8.09,8.09,0,0,1,.24-1.53,60.26,60.26,0,0,0,3.28-10.62,4,4,0,0,1,.88-1.85,1.51,1.51,0,0,1,1.36-.41,1.54,1.54,0,0,1,.52,1.32c-.36,2.39-.83,4.76-1.26,7.13a.38.38,0,0,1,0,.1c-1,2.17-.51,4.55-.82,6.81a18.37,18.37,0,0,0,.32,5.1c.25,1.7,1.36,2.25,2.79,1.4,1.77-1.05,3.37-2.19,3.65-4.63a10.52,10.52,0,0,1,2.32-5.38c1-1.26,2.18-2.55,3.77-2.45,2.34.15,1.82-1.55,2.1-2.67.54-2.21.91-4.47,1.39-6.7a1.9,1.9,0,0,1,1.68-1.58c.75-.1,1.17.23,1,1-.55,2.22-1.19,4.42-1.64,6.65-.4,2-.61,4-.9,6,0,.07,0,.14,0,.2-.88,1.79.23,3.54.11,5.31a1.68,1.68,0,0,0,.3.83c.76,1.36,1.36,1.72,2.83.78,1.73-1.09,2.63-2.93,3.57-4.68.66-1.22,1.16-2.53,1.88-3.71A4.89,4.89,0,0,1,69.8,78c2.27-.46,3,1.62,2.7,3.08A4.57,4.57,0,0,1,68,85C67.75,85.06,67.46,85.12,67,85.18ZM55.52,81c-1.22.13-2.25.24-2.94,1.2a10.07,10.07,0,0,0-2.15,6.59c0,.27.25.72.41.73a1.21,1.21,0,0,0,1-.34c.94-1.61,1.86-3.24,2.65-4.92A26.42,26.42,0,0,0,55.52,81ZM26,88.39c1.31-.39,3.78-6,3.42-7.66C28.16,81.19,25.85,86.3,26,88.39ZM68,82.95c1-.16,2-.21,2.35-1.41.08-.29.1-.8,0-.89a1.35,1.35,0,0,0-1-.09A2.57,2.57,0,0,0,68,82.95Z"/>
      <path class="cls-8" d="M17.58,89c.26-1.62.56-3.23.78-4.85.43-3.15.81-6.32,1.27-9.46a1.77,1.77,0,0,1,.78-1.11c.34-.2,1.07-.25,1.26,0A2,2,0,0,1,22,75c-.52,3.77-1,7.55-1.7,11.3a36.91,36.91,0,0,1-1.66,6.09c-.55,1.51-1.79,1.58-2.6.16a14.87,14.87,0,0,1-1.35-3.67c-.42-1.64-.66-3.33-1-5a6.45,6.45,0,0,0-.35-.88c-.26.65-.45,1.08-.62,1.53-1,2.88-2.07,5.78-3.16,8.65a3.73,3.73,0,0,1-1,1.28c-1,.89-2,.57-2.23-.86A21.87,21.87,0,0,1,6.1,89.9C6,86.06,6,82.22,5.94,78.39c0-1.46-.18-2.92-.35-4.37-.1-.83.16-1.43,1-1.6A1.19,1.19,0,0,1,8,73.51c.19,1.48.3,3,.35,4.46.08,2.31.09,4.63.12,6.94a28,28,0,0,0,.23,4.2c.42-1,.92-2.06,1.25-3.13.9-2.9,1.69-5.84,2.6-8.73a1.36,1.36,0,0,1,1-.79,1.66,1.66,0,0,1,1.14.83,8.36,8.36,0,0,1,.54,2.11c.55,3,1.08,6,1.64,9a2.26,2.26,0,0,0,.36.63Z"/>
      <path class="cls-9" d="M53.55,105.32h3V107H51.4V97.26h2.15Z"/>
      <path class="cls-9" d="M62.21,107.23c-3.37,0-5.46-2.27-5.46-5.13S58.91,97,62.21,97s5.46,2.21,5.46,5.1S65.57,107.23,62.21,107.23Zm0-8.36A3.25,3.25,0,1,0,65.44,102,3.14,3.14,0,0,0,62.21,98.87Z"/>
      <path class="cls-9" d="M76.38,99.84a3.36,3.36,0,0,0-2.43-1,3.31,3.31,0,0,0,0,6.62,3.56,3.56,0,0,0,2.44-1v2.25a6.42,6.42,0,0,1-2.5.58,5.12,5.12,0,1,1,0-10.23,5.69,5.69,0,0,1,2.46.57Z"/>
      <path class="cls-9" d="M80.05,104.92l-.91,2H76.87l4.3-10h1.67L87,107h-2.3l-.85-2Zm1.86-5.07h0l-1.21,3.53h2.62Z"/>
      <path class="cls-9" d="M89.84,105.32h3V107h-5.2V97.26h2.15Z"/>
    </g>
  </g>
</svg>
